X: 230
T: Preludium No. 1	 Op. 28
C: Fryderyk Chopin
%%abc-version 2.0
%%abcx-abcm2ps-target-version 5.9.1 (29 Sep 2008)
%%abc-creator hum2abc beta
%%abcx-conversion-date 2021/10/03 11:23:32
%%abc-edited-by Jędrzej Mróz
%%abc-edited-by Mateusz Mrugas
%%abcx-initial-encoding-date 2020-02-28
%%humdrum-veritas 2167849834
%%humdrum-veritas-data 2804406662
%%linebreak <none>
%%barnumbers 0
L: 1/16
M: 2/8
N: Derived from 028-1-BH-001.krn
P: Vingt-quatre PRELUDES pour le Piano
Q: "Agitato."
%%staves {1 2}
V: 1 clef=treble
V: 2 clef=bass
K: C
[V:1] (3:2:5z G,C G2A & x2 (3ECA, | 
[V:2] (3:2:4x2< G,2xA, & (3C,,G,,E, z2 | 
[V:1] (3:2:5x G,D G2A & x2 (3FDA, | 
[V:2] (3:2:4z2< G,2xA, & (3B,,,G,,F, z2 | 
[V:1] (3:2:5x G,C G2A & x2 (3ECA, | 
[V:2] (3:2:4z2< G,2xA, & (3C,,G,,E, z2 | 
[V:1] (3:2:5x B,E B2c & x2 (3GEC | 
[V:2] (3:2:4z2< B,2xC & (3E,,C,G, z2 | 
[V:1] (3:2:5z EA e2d & x2 (3cAD | 
[V:2] (3:2:4x E2x2D & (3F,,C,A, z2 | 
[V:1] (3:2:5z EA e2d & x2 (3cAD | 
[V:2] (3:2:4x E2x2D & (3^F,,D,C z2 | 
[V:1] (3:2:5z EG e2d & x2 (3BGD | 
[V:2] (3:2:4x2< E2xD & (3G,,=F,B, z2 | 
[V:1] (3:2:5z B,D B2A & x2 (3FDA, | 
[V:2] (3:2:4x2< B,2xA, & (3G,,,G,,F, z2 | 
[V:1] (3:2:5x G,C G2A & x2 (3ECA, | 
[V:2] (3:2:4z2< G,2xA, & (3C,,G,,E, z2 | 
[V:1] (3:2:5x G,D G2A & x2 (3FDA, | 
[V:2] (3:2:4z2< G,2xA, & (3B,,,G,,F, z2 | 
[V:1] (3:2:5x G,C G2A & x2 (3ECA, | 
[V:2] (3:2:4z2< G,2xA, & (3C,,G,,E, z2 | 
[V:1] (3:2:5z B,E B2c & x2 (3GEC | 
[V:2] (3:2:4x2< B,2xC & (3E,,C,G, z2 | 
[V:1] (3:2:5z ^CF ^c2d & x2 (3AFD | 
[V:2] (3:2:4x2< ^C2xD & (3F,,=C,A, z2 | 
[V:1] (3:2:5z ^DG ^d2e & x2 (3cGE | 
[V:2] (3G,,C,_B, z2 | 
[V:1] (3:2:5z GA g2f & x2 (3cAF | 
[V:2] (3A,,F,C z2 | 
[V:1] (3:2:5z ^DG ^d2e & x2 (3cGE | 
[V:2] (3G,,C,C z2 | 
[V:1] (3:2:5z EA e2f & x2 (3cAF | 
[V:2] (3A,,F,C z2 | 
[V:1] (5:4:4^FB ^f2g & (5:4:5x x dBG | 
[V:2] (3B,,G,D z2 | 
[V:1] (5:4:4^Gc ^g2a & (5:4:5x x ecA | 
[V:2] (3C,=G,E z2 | 
[V:1] (5:4:4^Ad ^a2b & (5:4:5x x gdB | 
[V:2] (3D,G,F z2 | 
[V:1] (3:2:5z de d'2c' & x2 (3gec | 
[V:2] (3E,CG z2 | 
[V:1] (3:2:5z Bc b2a & x2 (3^dcA | 
[V:2] (3^F,,^D,C z2 | 
[V:1] (5:4:4Ac a2g & (5:4:5x x ecG | 
[V:2] (3G,,E,C z2 | 
[V:1] (3:2:5z EG e2d & x2 (3BGD | 
[V:2] (3G,,F,B, z2 | 
[V:1] (5:4:4G,C G2A & (5:4:5x x ECA, | 
[V:2] (3C,,G,,E, x2 | 
[V:1] (5:4:4EG e2d & (5:4:5x x BGD | 
[V:2] (3C,,G,,F, z2 | 
[V:1] (3:2:5z G,C G2A & x2 (3ECA, | 
[V:2] (3C,,G,,E, z2 | 
[V:1] (3:2:5z EG e2d & x2 (3BGD | 
[V:2] (3C,,G,,F, z2 | 
[V:1] (3z CF c2 & (3:2:5x C2 AF[GE] | 
[V:2] (3C,,G,,F, z2 | 
[V:1] c2 c2 & (3z CF (3AF[GE] | 
[V:2] (3C,,G,,G, z2 | 
[V:1] c2 c2 & (3z CF (3AF[GE] | 
[V:2] (3C,,G,,G, z2 | 
[V:1] c2 c2 & (3z CF (3AF[GE] | 
[V:2] (3C,,G,,G, z2 | 
[V:1] x2 (3E,-G,-C- | 
[V:2] (3C,,-G,,-C,- x2 | 
[V:1] !fermata![E4C4G,4E,4] |]  
[V:2] [C,4G,,4C,,4] |]
